!!!OTL-incipit: ES BLIES EIN JAEGER WOHL IN SEIN HORN
!!!ARE: Europa, Mitteleuropa, Deutschland
!!!SCT: Z0191
!!!TXL: @@DE
!!!YEM: Copyright 1995, estate of Helmut Schaffrath.
**kern	**text
*ICvox	*
!! Mixed meters:  6/8; 2/4
*M6/8	*
*k[]	*
*C:	*
!LO:TX:a:t=Deutſch.	!
{8g	Es
=1	=1
4cc	blies
8cc	ein
8.cc	Jä-
16b	-ger
8a	wohl
=2	=2
4g	in
8g	ſein
4g}	Horn,
{8gg	wohl
=3	=3
4.ee	in
4.dd	ſein
=4	=4
4.cc	Horn,
4r}	.
{8g	Und
=5	=5
4cc	all's
8cc	was
8.cc	er
16b	blies,
8a	das
=6	=6
4g	war
8g	ver-
4g}	-lor'n,
{8gg	das
=7	=7
4.ee	war
4.dd	ver-
=8	=8
*M2/4	*
!LO:TX:a:t=Munter.	!
4cc	-lor'n.
4r}	.
=9	=9
{8gg	Hopſa-
16ee	.
16ee	-ſa,
8ee	tra-
8gg	-tra-
=10	=10
8ff	-ra-
8dd	-ra-
8dd}	-ra,
{8g	und
=11	=11
16cc	al-
16dd	-les
16ee	was
16ff	er
8gg	blies,
8cc	das
=12	=12
4ee	war
4dd	ver-
=13	=13
4cc	-lor'n.
4r}	.
==	==
!!!AGN: Soldaten -, Jaeger - Lied
!!!ONB: ESAC (Essen Associative Code) Database: ZUCCAL
!!!AMT: irregular
!!!AIN: vox
!!!EED: Helmut Schaffrath
!!!EEV: 1.0
!!!GTL: III. Soldaten-, Jaeger-, Schiffer-, Fuhrmanns- und Handwerks-Lieder.
!!!URL-scan: https://www.digitale-sammlungen.de/de/view/bsb11160571?page=354
!!!ENC: Anna Maria Matuszewska
!!!EEV: 2025/01/28
*-	*-
